!!!OTL: DA DRUNTEN IM GAERTELEIN
!!!ARE: Europa, Mitteleuropa, Deutschland, Wetzlar, Dutenhofen
!!!SCT: E0009A
!!!YEM: Copyright 1995, estate of Helmut Schaffrath.
**kern
*ICvox
*Ivox
*M6/8
*k[f#]
*G:
{8d
=1
8.g
16a
8b
8cc
8b
8a
=2
4.g
4r}
{8a
=3
4a
8b
8dd
8cc
8b
=4
4.a
4r}
{8g
=5
4b
16dd
16ee
8.dd
16cc
16cc
16b
=6
8a
8a
8dd
8.b
16a
16b
16a}
=7
{8g
8.g
16a
8b
8b
8ee
=8
4dd
16cc
16dd
4b}
==
!!!AGN: Sage, Maerchen -, Zauber - Lied, Ballade ?
!!!ONB: ESAC (Essen Associative Code) Database: ERK1
!!!AMT: compound duple
!!!AIN: vox
!!!EED: Helmut Schaffrath
!!!EEV: 1.0
*-
